src/xmb/monochrome/Atari - 2600.svg

<svg xmlns="http://www.w3.org/2000/svg" xml:space="preserve" width="64" height="64" viewBox="0 128 64 64"><path fill="#fff" d="M50 136H14c-3 0-4 1-4 4v40c0 3 1 4 4 4h36c3 0 4-1 4-4v-40c0-3-1-4-4-4m-18 43c-9.39 0-17-7.61-17-17 0-1.771.272-3.478.777-5.081.923-2.934.473-5.752-2.441-9.145C12.472 146.768 12 145.43 12 144a6 6 0 0 1 6-6c2.596 0 4.336 1.877 5.643 3.953 1.524 2.422 3.381 3.587 5.919 3.221q1.194-.173 2.438-.174c9.39 0 17 7.61 17 17s-7.61 17-17 17m-10-35a4 4 0 1 0-8 0 4 4 0 0 0 8 0m10 4c-7.732 0-14 6.268-14 14s6.268 14 14 14 14-6.268 14-14-6.268-14-14-14m0 26c-6.628 0-12-5.372-12-12s5.372-12 12-12 12 5.372 12 12-5.372 12-12 12m-.012-17.263c-.624.003-4.239 2.101-4.55 2.642-.312.542-.304 4.722.01 5.261.314.541 3.937 2.623 4.562 2.623h.002c.625-.002 4.241-2.102 4.55-2.642.312-.54.304-4.722-.011-5.263-.313-.537-3.936-2.621-4.563-2.621"/></svg>

<?xml version="1.0" encoding="utf-8"?>
<!-- Generator: Adobe Illustrator 16.0.0, SVG Export Plug-In . SVG Version: 6.00 Build 0)  -->
<!DOCTYPE svg PUBLIC "-//W3C//DTD SVG 1.1//EN" "http://www.w3.org/Graphics/SVG/1.1/DTD/svg11.dtd">
<svg version="1.1"
	 id="svg2" inkscape:export-filename="/home/kivutar/Bureau/lakka-menu/reload.png" inkscape:export-xdpi="90" inkscape:version="0.48.4 r9939" inkscape:export-ydpi="90" sodipodi:docname="reload.svg" xmlns:svg="http://www.w3.org/2000/svg" xmlns:cc="http://creativecommons.org/ns#" xmlns:sodipodi="http://sodipodi.sourceforge.net/DTD/sodipodi-0.dtd" xmlns:rdf="http://www.w3.org/1999/02/22-rdf-syntax-ns#" xmlns:dc="http://purl.org/dc/elements/1.1/" xmlns:inkscape="http://www.inkscape.org/namespaces/inkscape"
	 xmlns="http://www.w3.org/2000/svg" xmlns:xlink="http://www.w3.org/1999/xlink" x="0px" y="0px" width="64px" height="64px"
	 viewBox="0 128 64 64" enable-background="new 0 128 64 64" xml:space="preserve">
<path id="Atari_2600_1_" fill="#ffffff" d="M50,136H14c-3,0-4,1-4,4v40c0,3,1,4,4,4h36c3,0,4-1,4-4v-40C54,137,53,136,50,136z
	 M32,179c-9.39,0-17-7.61-17-17c0-1.771,0.272-3.478,0.777-5.081c0.923-2.934,0.473-5.752-2.441-9.145
	C12.472,146.768,12,145.43,12,144c0-3.313,2.687-6,6-6c2.596,0,4.336,1.877,5.643,3.953c1.524,2.422,3.381,3.587,5.919,3.221
	C30.357,145.06,31.172,145,32,145c9.39,0,17,7.61,17,17S41.39,179,32,179z M22,144c0-2.209-1.791-4-4-4s-4,1.791-4,4s1.791,4,4,4
	S22,146.209,22,144z M32,148c-7.732,0-14,6.268-14,14s6.268,14,14,14s14-6.268,14-14S39.732,148,32,148z M32,174
	c-6.628,0-12-5.372-12-12s5.372-12,12-12s12,5.372,12,12S38.628,174,32,174z M31.988,156.737c-0.624,0.003-4.239,2.101-4.55,2.642
	c-0.312,0.542-0.304,4.722,0.01,5.261c0.314,0.541,3.937,2.623,4.562,2.623c0,0,0,0,0.002,0c0.625-0.002,4.241-2.102,4.55-2.642
	c0.312-0.54,0.304-4.722-0.011-5.263C36.238,158.821,32.615,156.737,31.988,156.737z"/>
</svg>
